X:1
T:D'amor l'ardente
T:D'amor l'ardente face
T:Jhan Gero
T:Source : Trium vocum cantiones---Nürnberg---J.Petreius---1541. Editor : André Vierendeels ( 26/09/16).
T:Notes : Original clefs : C2, C4, F3 Editorial accidentals above the staff Original note values have been halved Square brackets indicate ligatures  
T:©
T:©
T:©
T:©
T:©
T:©
T:©
C:Jhan Gero
Z:©
%%score [ 1 2 3 ]
L:1/8
Q:1/4=120
M:2/2
K:C
V:1 treble nm="Alto" snm="A"
V:2 treble-8 nm="Tenor" snm="T"
V:3 bass nm="Bass" snm="B"
V:1
 z8 | z8 | z4 z2 A,2 | D6 C2 | D3 C/B,/ A,B, C2 | B,2 A,4 G,2 | A,8 | z4 E4 | G2 G2 F2 D2 | %9
w: ||D'a-|mor l'ar-|den- * * * * *|te fa- *|ce,|e|stin- te ved' ogn'|
 A3 G/F/ E4 | E4 E2 F2- | FEDC D4 | C3 B, A,4 | z4 E4 | G2 G2 F2 D2 | A3 G/F/ E2 G2 | F2 E3 D D2- | %17
w: hor _ _ _|nel ca- sto|_ _ _ _ _|pet- * to,|di|quel- la ch'e mia|gio- * * ia, et|et mio di- let-|
 D2 C2 D4- | D8 | z8 | D4 D2 D2 | C6 B,2 | DCB,A, B,4 | A,B,CD EFGE | FG A4 G2 | A6 G2 | F4 E4 | %27
w: * * to,|_||e'n me cre-|sce la|fiam- * * * *||* * ma el|grand' ar-|do- re,|
 E4 E2 E2 | F6 E2 | F4 E4 | z2 E2 F2 G2 | A2 F2 E2 A2 | G2 E2 G4 | D4 A4 | A2 A2 D2 D2 | %35
w: per quell' a-|vra- to|stra- le,|ch'a- mor mi|pos' an- chor ne'i|miei prim' an-|ni, ca-|gion d'o- gni mi'af-|
 G3 F E2 D2 | CDEC DE F2- | F2 E2 F4 | G4 C4 | z2 D2 E2 E2 | F2 E3 D D2- |"^#" D2 C2 D4- | %42
w: fann', e in- ten-|so- * * * * * *|* na- *|* le,|e d'o- gn'|as- pro do- lo-|* * re,|
 D4 z2 D2- | D2 C2 D2 B,2 | A,3 B, C3 D | E2 F3 E A2- |"^#" A2 G2 A4- | A4 z2 D2- | D2 C2 D2 B,2 | %49
w: _ prin-|* ci- pi'e mez-|z'a miei gra- *|* vo- si dan-|* * ni,|_ ne|_ fia gia- mai|
 A,3 B, C3 D | E2 F3 E A2- |"^#" A2 G2 A4 | G4 G2 G2 | G2 G2 A4 | A4 G2 A2 | F4 E4 | A4 A2 A2 | %57
w: che _ san- *||* * ni,|hu- man ri-|me- dio l'as-|pra ci- ca-|tri- ce,|se non quel-|
 E2 E2 G3 F/E/ | D2 D2 F3 E/D/ | CD E3 D D2- | D2 C2 D4 | A4 A2 A2 | E2 E2 G3 F/E/ | %63
w: la ch'e d'o- * *|gno ben ra- * *||* di- ce,|se non quel-|la ch'e d'o- * *|
 D2 D2 F3 E/D/ | CD E3 D D2- |"^#" D2 C2 D4- | D8 |] %67
w: gni ben ra- * *||* di- ce.|_|
V:2
 A4 d4- | d2 c2 d3 c/B/ | AB c2 B2 A2- | A2 G2 A4 | z2 d2 f2 e2 | d3 c B4 | A4 z4 | A4 c2 c2 | %8
w: D'a- mor|_ l'ar- den- * *|* * * te fa-|* * ce,|d'a- mor l'ar-|den- te fa-|ce,|e stin- e|
 B2 G2 d3 c/B/ | A4 c4 | c2 c3 BAG | FE A4 G2 | A4 z4 | A4 c2 c2 | B2 G2 d3 c/B/ | A2 F2 G2 E2 | %16
w: ved' ogn' hor _ _|_ nel|ca- sto _ _ _|_ _ pet- *|to,|di quel- la|ch'e mia gio- * *|ia et mio di-|
 F2 G3 FED | E4 D4 | F4 F2 F2 | E3 F GA B2- | BA A4 G2 | A3 G/F/ E4 | z2 d2 d2 d2 | c6 B2 | %24
w: let- * * * *|* to,|e'n me cre-|sce _ _ _ la|_ _ fiam- *|ma, _ _ _|in me cre-|* sche|
 dcBA B4 | A2 f4 e2 | d4 c4 | c4 c2 c2 | d3 c/B/ A2 c2 | A4 A2 A2 | B2 c2 d2 B2 | A2 d2 c2 A2 | %32
w: fiamm' _ _ _ _|el grand' ar-|do- re,|per quell' a-|vra- * * to stra-|* le, ch'a-|mor mi pos' an-|chor ne i mie-|
 B2 c2 B4- | B4 A4- | A4 d4 | d2 d2 G2 G2 | c3 B A2 GF | G4 F4 | z4 A4 | B2 B2 c3 B | A2 G3 FED | %41
w: i prim' an-|* ni,|_ ca-|gion d'o- gni mi'af-|fan' e'in- ten so _|ma- le,|e|d'o- gn' as- pro|do- * * * *|
 E4 D4- | D4 A4 | G2 A2 D3 E | F3 G A2 G2- | G2 d3 cBA | B4 A4- | A4 A4 | G2 A2 D3 E | %49
w: lo- re,|_ prin-|ci- pie' mez- z'a|miei gra- vo- si|_ dan- * * *|* ni,|_ ne|fia gia- ma- *|
 F3 G A2 G2- | G2 d2 dcBA | B4 A4 | e4 e2 e2 | e2 e2 f4 | d4 e2 c2 | d4 c4- | c8 | e4 e2 e2 | %58
w: * * * i|_ che san- * * *|* ni,|hu- man ri-|me- dio l'as-|pra ci- ca-|tri- ce,|_|se non quel-|
 B2 B2 d3 c/B/ | A2 G2 G2 F2 | E4 F3 G | A4 z4 | e4 e2 e2 | B2 B2 d3 c/B/ | A2 G2 G2 F2 | E4 D4- | %66
w: la ch'e d'o- * *|gni ben ra- *|* di- *|ce,|se non quel-|la ch'e d'o- * *|gni ben ra- *|di- ce.|
 D8 |] %67
w: _|
V:3
"^#" z8 | A,,4 D,4- | D,2 C,2 D,2 D,2 | B,,4 A,,2 A,,2 | D,6 C,2 | D,2 D,2 E,4 | A,,4 D,4 | %7
w: |D'a- mor|_ l'ar- den- ti|fa- ce, d'a-|mor l'ar-|den- ti fa-|ce, e|
 F,2 F,2 E,2 C,2 | G,3 F,/E,/ D,4- | D,4 A,4 | A,2 A,3 G,F,E, | D,C,B,,A,, B,,4 | A,,4 D,4 | %13
w: stin- te ved' ogn'|hor _ _ _|_ nel|ca- sto _ _ _|_ _ _ _ pet-|to, di|
 F,2 F,2 E,2 C,2 | G,3 F,/E,/ D,4- | D,4 C,4 | D,2 E,2 C,2 D,2 | A,,4 D,4 | D,4 D,2 D,2 | %19
w: quel- la ch'e mia|gio- * * ia,|_ et|mio di- let- *|* to,|e'n me cre-|
 C,6 B,,2 | D,C,B,,A,, B,,4 | A,,B,,C,D, E,F,G,E, | F,G, A,4 G,2 | A,6 G,2 | F,4 E,4 | %25
w: sce la|fiam- * * * *|||ma e'l|grand' ar-|
 F,2 D,4 E,2 | F,2 G,2 A,4 | A,,4 A,,2 A,,2 | D,3 E, F,2 C,2 | D,4 A,,4 | E,4 z2 E,2 | %31
w: do- r'e'l grand'|ar- do- re,|per quell' a-|vra- * * to|stra- *|le, ch'a-|
 F,2 G,2 A,2 F,2 | E,2 A,2 G,2 E,2 | G,4 D,4 | D,4 D,2 D,2 | G,,2 G,,2 C,2 B,,2 | A,,2 A,,2 D,4 | %37
w: mor mi pos' an-|chor miei prim' an-|ni, ca-|gion d'o- gni|mi'af- fann' e in-|ten- so ma-|
 C,4 z2 D,2 | E,2 E,2 F,2 F,2 | D,4 C,2 C,2 | D,2 E,2 C,2 D,2 | A,,4 D,4 | z2 D,2 C,2 D,2 | %43
w: le, e|d'o- gn'as- pro do-|lo- re, et|d'o- gn'as- pro do-|lo- re,|prin- ci- pi'e|
 B,,2 A,,2 B,,3 C, | D,3 C,/B,,/ A,,B,, C,2- | C,2 D,2 F,4 | E,4 A,,4 | D,4 C,2 D,2 | %48
w: mez- z'a miei gra-|vo- * * * * *|* si dan-|* ni,|ne fia gia-|
 B,,2 A,,2 B,,3 C, | D,3 C,/B,,/ A,,B,, C,2- | C,2 D,2 F,4 | E,4 A,,4 | C4 C2 C2 | C2 C2 F,4 | %54
w: mai che san- *|||* ni,|hu- man ri-|me- dio l'as-|
 F,4 E,2 F,2 | D,4 A,4- | A,4 A,4 | A,2 A,2 E,2 E,2 | G,3 F,/E,/ D,2 D,2 | F,2 C,4 D,2 | %60
w: pra ci- ca-|tri- ce,|_ se|non quel- la ch'e|d'o- * * gni ben|ra- di- *|
 A,,4 D,4- | D,4 A,4 | A,2 A,2 E,2 E,2 | G,3 F,/E,/ D,2 D,2 | F,2 C,4 D,2 | A,,4 D,4- | D,8 |] %67
w: * ce,|_ se|non quel- la ch'e|d'o- * * gni ben|ra- di- *|* ce.|_|

